X:168
T:Duchess of Athole's Slipper, The
T:Duchess' Slipper, The
C:Niel Gow
B:Kerr's Merry Melodies, Book 2
Z:Nigel Gatherer
N:Transposed from F for comparison
N:Changed from a Strathspey to a reel for comparison
M:4/4
L:1/8
K:G
DGBG dGBG|DGBG EA A2|DGBG dBge|dcBA G/G/G G2:|
dgbg agbg|dgbg fa a2|dgbg agbg|agab g/g/g g2|
dgbg agbg|dgbg fa a2|gbeg dgbg|dcBA G/G/G G2|]
<end>
<start>
